public/images/poses-lg/Plow.svg

<svg width="800" height="800" fill="none" xmlns="http://www.w3.org/2000/svg"><path d="M377.434 771.656s12.406-11.36 26.571-.028c14.164 11.331 158.641 2.832 172.805 0 14.165-2.833 138.81 5.665 138.81 5.665s33.997-8.5 25.498-25.496c-8.5-16.997-16.997-28.329-25.498-25.496-8.499 2.831-8.499 14.165-8.499 14.165v11.331l-124.646-14.164-79.321-2.833-2.607-187.535c-.259-18.602-8.813-36.43-23.952-47.241-17.351-12.393-45.68-18.767-89.589 5.312-87.82 48.16-121.814 93.486-121.814 93.486s-50.992-2.833-107.651 45.325c-56.657 48.16-96.318 50.992-96.318 50.992s-11.331 0 8.5 31.162c19.83 31.161 14.163 48.159 19.83 50.992 5.666 2.833 59.49-2.833 59.49-2.833s2.833-25.495-25.496-19.829c-28.328 5.665-5.665-45.325 2.833-48.16 8.498-2.833 158.641-62.324 158.641-62.324s127.481-25.495 138.811-45.325c0 0-2.832 42.493-11.331 62.324-8.499 19.83-19.829 31.161-14.165 50.991 5.665 19.83-8.836 19.363-16.997 25.496-22.663-2.833-3.905 34.023-3.905 34.023Z" fill="#fff" stroke="#000" stroke-width="5" stroke-miterlimit="10"/><path d="M377.434 771.656s12.406-11.36 26.571-.028c14.164 11.331 158.641 2.832 172.805 0 14.165-2.833 138.81 5.665 138.81 5.665s33.997-8.5 25.498-25.496c-8.5-16.997-16.997-28.329-25.498-25.496-8.499 2.831-8.499 14.165-8.499 14.165v11.331l-124.646-14.164-79.321-2.833-2.607-187.535c-.259-18.602-8.813-36.43-23.952-47.241-17.351-12.393-45.68-18.767-89.589 5.312-87.82 48.16-121.814 93.486-121.814 93.486s-50.992-2.833-107.651 45.325c-56.657 48.16-96.318 50.992-96.318 50.992s-11.331 0 8.5 31.162c19.83 31.161 14.163 48.159 19.83 50.992 5.666 2.833 59.49-2.833 59.49-2.833s2.833-25.495-25.496-19.829c-28.328 5.665-5.665-45.325 2.833-48.16 8.498-2.833 158.641-62.324 158.641-62.324s127.481-25.495 138.811-45.325c0 0-2.832 42.493-11.331 62.324-8.499 19.83-19.829 31.161-14.165 50.991 5.665 19.83-16.997 25.496-16.997 25.496-22.663-2.833-3.905 34.023-3.905 34.023Z" stroke="#000" stroke-width="5" stroke-miterlimit="10"/><path d="M392.671 717.801s25.496-16.884 7.082 51.05" stroke="#000" stroke-width="5" stroke-miterlimit="10"/><path d="M369.543 753.711c-8.963 4.673-17.426.05-28.439 1.296-17.494 1.983-33.783-20.286-31.881-40.21 2.511-26.307 95.144-23.625 96.147-8.282.592 9.087-7.547 25.256-22.769 36.611-4.894 3.653-13.058 10.585-13.058 10.585Z" fill="#fff" stroke="#000" stroke-width="5" stroke-miterlimit="10"/><path d="M369.543 753.711c-8.963 4.673-17.426.05-28.439 1.296-17.494 1.983-33.783-20.286-31.881-40.21 2.511-26.307 95.144-23.625 96.147-8.282.592 9.087-7.547 25.256-22.769 36.611-4.894 3.653-13.058 10.585-13.058 10.585Z" stroke="#000" stroke-width="5" stroke-miterlimit="10"/><path d="M318.485 707.311c14.623-1.485 28.86 14.873 27.089 23.905-1.766 9.026-1.948 15.402 1.062 16.289 3.01.882 7.967.174 8.322-2.479.355-2.659-1.062-8.5 4.072-8.853 5.134-.355 18.237 7.438 21.954 17.879 3.718 10.447-4.78 24.611-20.892 29.745-16.11 5.135-38.509-8.285-50.459-24.256-5.763-7.699-8.859-17.529-8.596-26.026.435-14.003 3.101-24.74 17.448-26.204Z" fill="#100200" stroke="#000" stroke-width="5" stroke-miterlimit="10"/><path d="M321.785 753.859c-4.819 6.276-8.213 14.52-20.232 16.028-12.017 1.509-16.022-6.411-23.436-3.771-7.409 2.639-21.165 19.353-33.383 19.729-12.218.378-10.881-8.792-24.303-8.604-11.477.16-10.415 20.932-35.852 18.669-12.203-1.084-13.22-78.26 3.204-76.941 16.425 1.321 22.683 13.796 31.898 13.421 9.213-.38 12.957-12.557 25.389-12.289 17.426.377 19.029 18.293 32.049 18.482 10.704.154 12.617-6.601 25.238-6.036 12.62.567 19.428 21.312 19.428 21.312Z" fill="#100200" stroke="#000" stroke-width="5" stroke-miterlimit="10"/><path d="M503.024 725.411s-84.855-38.774-99.02 46.212" stroke="#000" stroke-width="5" stroke-miterlimit="10"/><path d="M422.599 612.295s69.093-2.144 77.722-33.306Z" fill="#fff"/><path d="M422.599 612.295s69.093-2.144 77.722-33.306" stroke="#000" stroke-width="5" stroke-miterlimit="10"/><path d="M422.599 612.295s69.093-2.144 77.722-33.306" stroke="#000" stroke-width="5" stroke-miterlimit="10"/><path d="M423.833 598.819s11.332-19.831 14.164-28.33Z" fill="#fff"/><path d="M423.833 598.819s11.332-19.831 14.164-28.33" stroke="#000" stroke-width="5" stroke-miterlimit="10"/><path d="M423.833 598.819s11.332-19.831 14.164-28.33M111.657 676.437s-.194 26.099 20.01 28.065" stroke="#000" stroke-width="5" stroke-miterlimit="10"/></svg>

<svg width="800" height="800" viewBox="0 0 800 800" fill="none" xmlns="http://www.w3.org/2000/svg">
<path d="M377.434 771.656C377.434 771.656 389.84 760.296 404.005 771.628C418.169 782.959 562.646 774.46 576.81 771.628C590.975 768.795 715.62 777.293 715.62 777.293C715.62 777.293 749.617 768.793 741.118 751.797C732.618 734.8 724.121 723.468 715.62 726.301C707.121 729.132 707.121 740.466 707.121 740.466V751.797L582.475 737.633L503.154 734.8L500.547 547.265C500.288 528.663 491.734 510.835 476.595 500.024C459.244 487.631 430.915 481.257 387.006 505.336C299.186 553.496 265.192 598.822 265.192 598.822C265.192 598.822 214.2 595.989 157.541 644.147C100.884 692.307 61.223 695.139 61.223 695.139C61.223 695.139 49.8918 695.139 69.7221 726.301C89.5524 757.462 83.8863 774.46 89.5524 777.293C95.2185 780.126 149.043 774.46 149.043 774.46C149.043 774.46 151.876 748.965 123.547 754.631C95.2185 760.296 117.882 709.306 126.38 706.471C134.878 703.638 285.021 644.147 285.021 644.147C285.021 644.147 412.502 618.652 423.832 598.822C423.832 598.822 421 641.315 412.501 661.146C404.002 680.976 392.672 692.307 398.336 712.137C404.001 731.967 389.5 731.5 381.339 737.633C358.676 734.8 377.434 771.656 377.434 771.656Z" fill="white" stroke="black" stroke-width="5" stroke-miterlimit="10"/>
<path d="M377.434 771.656C377.434 771.656 389.84 760.296 404.005 771.628C418.169 782.959 562.646 774.46 576.81 771.628C590.975 768.795 715.62 777.293 715.62 777.293C715.62 777.293 749.617 768.793 741.118 751.797C732.618 734.8 724.121 723.468 715.62 726.301C707.121 729.132 707.121 740.466 707.121 740.466V751.797L582.475 737.633L503.154 734.8L500.547 547.265C500.288 528.663 491.734 510.835 476.595 500.024C459.244 487.631 430.915 481.257 387.006 505.336C299.186 553.496 265.192 598.822 265.192 598.822C265.192 598.822 214.2 595.989 157.541 644.147C100.884 692.307 61.223 695.139 61.223 695.139C61.223 695.139 49.8918 695.139 69.7221 726.301C89.5524 757.462 83.8863 774.46 89.5524 777.293C95.2185 780.126 149.043 774.46 149.043 774.46C149.043 774.46 151.876 748.965 123.547 754.631C95.2185 760.296 117.882 709.306 126.38 706.471C134.878 703.638 285.021 644.147 285.021 644.147C285.021 644.147 412.502 618.652 423.832 598.822C423.832 598.822 421 641.315 412.501 661.146C404.002 680.976 392.672 692.307 398.336 712.137C404.001 731.967 381.339 737.633 381.339 737.633C358.676 734.8 377.434 771.656 377.434 771.656Z" stroke="black" stroke-width="5" stroke-miterlimit="10"/>
<path d="M392.671 717.801C392.671 717.801 418.167 700.917 399.753 768.851" stroke="black" stroke-width="5" stroke-miterlimit="10"/>
<path d="M369.543 753.711C360.58 758.384 352.117 753.761 341.104 755.007C323.61 756.99 307.321 734.721 309.223 714.797C311.734 688.49 404.367 691.172 405.37 706.515C405.962 715.602 397.823 731.771 382.601 743.126C377.707 746.779 369.543 753.711 369.543 753.711Z" fill="white" stroke="black" stroke-width="5" stroke-miterlimit="10"/>
<path d="M369.543 753.711C360.58 758.384 352.117 753.761 341.104 755.007C323.61 756.99 307.321 734.721 309.223 714.797C311.734 688.49 404.367 691.172 405.37 706.515C405.962 715.602 397.823 731.771 382.601 743.126C377.707 746.779 369.543 753.711 369.543 753.711Z" stroke="black" stroke-width="5" stroke-miterlimit="10"/>
<path d="M318.485 707.311C333.108 705.826 347.345 722.184 345.574 731.216C343.808 740.242 343.626 746.618 346.636 747.505C349.646 748.387 354.603 747.679 354.958 745.026C355.313 742.367 353.896 736.526 359.03 736.173C364.164 735.818 377.267 743.611 380.984 754.052C384.702 764.499 376.204 778.663 360.092 783.797C343.982 788.932 321.583 775.512 309.633 759.541C303.87 751.842 300.774 742.012 301.037 733.515C301.472 719.512 304.138 708.775 318.485 707.311Z" fill="#100200" stroke="black" stroke-width="5" stroke-miterlimit="10"/>
<path d="M321.785 753.859C316.966 760.135 313.572 768.379 301.553 769.887C289.536 771.396 285.531 763.476 278.117 766.116C270.708 768.755 256.952 785.469 244.734 785.845C232.516 786.223 233.853 777.053 220.431 777.241C208.954 777.401 210.016 798.173 184.579 795.91C172.376 794.826 171.359 717.65 187.783 718.969C204.208 720.29 210.466 732.765 219.681 732.39C228.894 732.01 232.638 719.833 245.07 720.101C262.496 720.478 264.099 738.394 277.119 738.583C287.823 738.737 289.736 731.982 302.357 732.547C314.977 733.114 321.785 753.859 321.785 753.859Z" fill="#100200" stroke="black" stroke-width="5" stroke-miterlimit="10"/>
<path d="M503.024 725.411C503.024 725.411 418.169 686.637 404.004 771.623" stroke="black" stroke-width="5" stroke-miterlimit="10"/>
<path d="M422.599 612.295C422.599 612.295 491.692 610.151 500.321 578.989Z" fill="white"/>
<path d="M422.599 612.295C422.599 612.295 491.692 610.151 500.321 578.989" stroke="black" stroke-width="5" stroke-miterlimit="10"/>
<path d="M422.599 612.295C422.599 612.295 491.692 610.151 500.321 578.989" stroke="black" stroke-width="5" stroke-miterlimit="10"/>
<path d="M423.833 598.819C423.833 598.819 435.165 578.988 437.997 570.489Z" fill="white"/>
<path d="M423.833 598.819C423.833 598.819 435.165 578.988 437.997 570.489" stroke="black" stroke-width="5" stroke-miterlimit="10"/>
<path d="M423.833 598.819C423.833 598.819 435.165 578.988 437.997 570.489" stroke="black" stroke-width="5" stroke-miterlimit="10"/>
<path d="M111.657 676.437C111.657 676.437 111.463 702.536 131.667 704.502" stroke="black" stroke-width="5" stroke-miterlimit="10"/>
</svg>
